contributed-vectors/learnneo.svg

<svg xmlns="http://www.w3.org/2000/svg" width="192" height="192" fill="none"><g clip-path="url(#a)"><path fill="#F8C18C" d="M172 96.5v60.1c0 9.1-7.3 16.4-16.4 16.4-8.2 0-15-6-16.2-13.9-.1-.8-.2-1.7-.2-2.5V96.5c0-24.2-19.6-43.7-43.7-43.7-16.5 0-30.8 9.1-38.3 22.5V30.2C68.5 23.7 81.6 20 95.5 20c42.3 0 76.5 34.2 76.5 76.5Z"/><path fill="#F8C18C" d="M78.6 80.4v32.2c0 4.4 4.7 7.1 8.5 5l29.5-16.1c4-2.2 4-7.9 0-10.1L87.1 75.3c-3.9-2-8.5.7-8.5 5.1Z"/><path fill="#9ABEFF" d="M111.9 156.6c0 9.1-7.3 16.4-16.4 16.4C53.3 173 19 138.8 19 96.5V36.4C19 27.3 26.3 20 35.4 20c8.2 0 15 6 16.2 13.9.1.8.2 1.7.2 2.5v60.1c0 24.1 19.6 43.7 43.7 43.7 9.1 0 16.4 7.4 16.4 16.4Z"/><path fill="#CCC" d="M111.9 156.6c0-9.1-7.3-16.4-16.4-16.4 24.2 0 43.7-19.6 43.7-43.7v60.1c0 .9.1 1.7.2 2.5-12.4 8.8-27.6 13.9-43.9 13.9 9.1 0 16.4-7.3 16.4-16.4Z"/></g><defs><clipPath id="a"><path fill="#fff" d="M0 0h192v192H0z"/></clipPath></defs></svg>

<svg width="192" height="192" viewBox="0 0 192 192" fill="none" xmlns="http://www.w3.org/2000/svg">
<g clip-path="url(#clip0)">
<path d="M172 96.5V156.6C172 165.7 164.7 173 155.6 173C147.4 173 140.6 167 139.4 159.1C139.3 158.3 139.2 157.4 139.2 156.6V96.5C139.2 72.3 119.6 52.8 95.5 52.8C79 52.8 64.7 61.9 57.2 75.3V30.2C68.5 23.7 81.6 20 95.5 20C137.8 20 172 54.2 172 96.5Z" fill="#F8C18C"/>
<path d="M78.6 80.4V112.6C78.6 117 83.3 119.7 87.1 117.6L116.6 101.5C120.6 99.3 120.6 93.6 116.6 91.4L87.1 75.3C83.2 73.3 78.6 76 78.6 80.4Z" fill="#F8C18C"/>
<path d="M111.9 156.6C111.9 165.7 104.6 173 95.5 173C53.3 173 19 138.8 19 96.5V36.4C19 27.3 26.3 20 35.4 20C43.6 20 50.4 26 51.6 33.9C51.7 34.7 51.8 35.6 51.8 36.4V96.5C51.8 120.6 71.4 140.2 95.5 140.2C104.6 140.2 111.9 147.6 111.9 156.6Z" fill="#9ABEFF"/>
<path d="M111.9 156.6C111.9 147.5 104.6 140.2 95.5 140.2C119.7 140.2 139.2 120.6 139.2 96.5V156.6C139.2 157.5 139.3 158.3 139.4 159.1C127 167.9 111.8 173 95.5 173C104.6 173 111.9 165.7 111.9 156.6Z" fill="#CCCCCC"/>
</g>
<defs>
<clipPath id="clip0">
<rect width="192" height="192" fill="white"/>
</clipPath>
</defs>
</svg>
